X: 35079
T: Rolling In The Ryegrass
R: reel
M: 4/4
K: Dmajor
|:ABAF DFAF|~G2 BG dGBG|ABAF DFAF|GBAG FD D2:|
|:ABde f2 fd|g2 ge fedB|ABde f2 ef|afdf fedB:|

